X:107
T:Pulley's Whim. THO5.107, Le
M:C
L:1/8
B:Thompson's Complete Collection of 200 Favourite Dances Vol.5
F:https://www.libraryofdance.org/manuals/1780c-Thompson-Compleat-5.pdf
Z:vmp. Peter Dunk 2024
Q:1/4=140
K:G
G2G2d2d2|e2 dc B3z|{d/}c2 BA {A/}G2 AG|BAGF G2D2|
G2G2d2d2|e2 dc B3z|d3c cBAG|BAGF G2-G2:|
d2d2g2g2|a2a2f3z|g2g2 gfed|fedc d2A2|
d2d2g2g2|a2a2 f3z|g3a gfed|fed^c d2d2|
G2G2d2-d2|e2 dc B3z|{d/}c2 BA {c/}B2 AG|BAGF G2D2|
G2G2d2d2|e2 dc B3z|d3c cBAG|BAGF G2-G2|]
W:
W:Cast off two Couples, lead up the middle and cast off ./.
W:Right hands across with the 3rd Couple, left hands back again ./:
W:Turn cross Corners, lead through the top, cast off :/.
W:Right and Left :/:

